X:1
T:Title
%%score { ( 1 3 4 ) | ( 2 5 6 ) }
L:1/8
M:4/4
K:F
V:1 treble nm="Grand Piano"
V:3 treble 
V:4 treble 
V:2 bass 
V:5 bass 
V:6 bass 
V:1
 z4 z[Q:1/4=92] C F>G | A6 z2 | c6 z2 | z z/ E/ E>E z z/ B/ A>_A | A6 z2 | A6 z2 | B6 z2 | A6 z2 | %8
[M:5/8] F-F- F3 |[M:3/8][K:bass] C,F,>G, |[M:4/4] A,4[K:treble] c2[K:bass] z2 | %11
 z4[K:treble] B2[K:bass] z2 | z4 =B2[K:bass] z2 | z z/[K:treble] c/ c>c c[K:bass]C, A,,>C, | %14
 z4[K:treble] c2[K:bass] z2 | z4[K:treble] B2[K:bass] z2 | z4[K:treble] G2[K:bass] z2 | %17
[M:5/8] z z/ F<F[K:treble]F/F |[M:3/8] CF>G |[M:4/4] A6 z2 | c6 z2 | z z/ E/ E>E z z/ B/ A>_A | %22
 A6 z2 | A6 z2 | B6 z2 | A6 z2 |[M:13/8] F-F- F3 z z z z z z z2 |] %27
V:2
 z4 z A, A,>B, | C6 z2 | z z/ F,/ F,>F, z z/ C/ D>C | B,6 z2 | C6 z2 | C6 z2 | D6 z2 | C6 z2 | %8
[M:5/8] z z/ A,<B,B,/A, |[M:3/8] z3 |[M:4/4] z z/[K:treble] [CF]/ [CF]>[B,F] [A,F]2 z2 | %11
 z z/ [DF]/ [DF]>[CF] [B,F]2 z2 | G,>G, z z/ F/ [G,F]2 z2 | z z/ [G,E]/ [G,E]>[A,F] .[B,E]2 z2 | %14
 z z/ [A,F]/ [A,F]>[A,F] [A,F]2 z2 | z z/ [B,F]/ [B,F]>[B,F] [B,F]2 z2 | %16
 z z/ [B,E]/ [B,E]>[B,E] [B,E]2 z2 |[M:5/8] z z/[K:bass] [A,C]<[B,D][B,D]/[A,C] |[M:3/8] A,A,>B, | %19
[M:4/4] C6 z2 | z z/ F,/ F,>F, z z/ C/ D>C | B,6 z2 | C6 z2 | C6 z2 | D6 z2 | C6 z2 | %26
[M:13/8] z z/ A,<B,B,/ .A,2 z z z z z z2 |] %27
V:3
 x8 | z z/ F/ F>F z z/ _A/ =A>d | z z/ F/ F>F z z/ A/ B>A | G6 z2 | z z/ F/ F>F FC F>G | %5
 z z/ F/ F>F z z/ _A/ =A>c | z z/ F/ F>F z z/ B/ A>_A | z z/ F/ F>F F>[DFB] [CFA]>[B,EG] | %8
[M:5/8] A,>CD>DC |[M:3/8][K:bass] x3 |[M:4/4] z z/[K:treble] c/ c>c z z/ G,/[K:bass] F,>E, | %11
 z z/[K:treble] B/ B>B z z/[K:bass] D,/ E,>F, | D>[F=B] [FB]>B z z/[K:bass] F,/ E,>D, | %13
 C,6[K:treble][K:bass] z2 | z z/[K:treble] c/ c>c z z/ A,/[K:bass] G,>F, | %15
 z z/[K:treble] B/ B>B z z/ B,/[K:bass] A,>G, | z z/[K:treble] G/ G>G z z/[K:bass] C,/ D,>E, | %17
[M:5/8] F,-F,- F,3[K:treble] |[M:3/8] x3 |[M:4/4] z z/ F/ F>F z z/ _A/ =A>d | %20
 z z/ F/ F>F z z/ A/ B>A | G6 z2 | z z/ F/ F>F FC F>G | z z/ F/ F>F z z/ _A/ =A>c | %24
 z z/ F/ F>F z z/ B/ A>_A | z z/ F/ F>F F>[DFB] [CFA]>[B,EG] |[M:13/8] A,>CD>D .C2 z z z z z z2 |] %27
V:4
 x8 | z4 F2 z2 | z4 F2 z2 | z4 E2 z2 | x8 | z4 F2 z2 | z4 F2 z2 | x8 |[M:5/8] x5 | %9
[M:3/8][K:bass] x3 |[M:4/4] x3/2[K:treble] x9/2[K:bass] x2 | D,6[K:treble][K:bass] z2 | %12
 x11/2[K:bass] x5/2 | x3/2[K:treble] x7/2[K:bass] x3 | F,6[K:treble][K:bass] z2 | %15
 D,6[K:treble][K:bass] z2 | C,6[K:treble][K:bass] z2 |[M:5/8] x7/2[K:treble] x3/2 |[M:3/8] x3 | %19
[M:4/4] z4 F2 z2 | z4 F2 z2 | z4 E2 z2 | x8 | z4 F2 z2 | z4 F2 z2 | x8 |[M:13/8] x13 |] %27
V:5
 x8 | z z/ F,/ F,>F, z z/ =B,/ C>_B, | A,6 z2 | z z/ C,/ C,>C, z z/ D/ C>=B, | %4
 z z/ F,/ F,>F, F,A, A,>B, | z z/ F,/ F,>F, z z/ =B,/ C>_E | z z/ B,,/ B,,>B,, z z/ D/ C>=B, | %7
 z z/ C,/ C,>C, C,>C, C,>C, |[M:5/8] F,-F,- F,3 |[M:3/8] x3 |[M:4/4] x3/2[K:treble] x13/2 | x8 | %12
 z2 G,2 z4 | x8 | x8 | x8 | x8 |[M:5/8] x3/2[K:bass] x7/2 |[M:3/8] x3 | %19
[M:4/4] z z/ F,/ F,>F, z z/ =B,/ C>_B, | A,6 z2 | z z/ C,/ C,>C, z z/ D/ C>=B, | %22
 z z/ F,/ F,>F, F,A, A,>B, | z z/ F,/ F,>F, z z/ =B,/ C>_E | z z/ B,,/ B,,>B,, z z/ D/ C>=B, | %25
 z z/ C,/ C,>C, C,>C, C,>C, |[M:13/8] F,-F,- F,3 z z z z z z z2 |] %27
V:6
 x8 | z4 F,2 z2 | z4 F,2 z2 | z4 C,2 z2 | x8 | z4 F,2 z2 | z4 B,,2 z2 | x8 |[M:5/8] x5 | %9
[M:3/8] x3 |[M:4/4] x3/2[K:treble] x13/2 | x8 | x8 | x8 | x8 | x8 | x8 |[M:5/8] x3/2[K:bass] x7/2 | %18
[M:3/8] x3 |[M:4/4] z4 F,2 z2 | z4 F,2 z2 | z4 C,2 z2 | x8 | z4 F,2 z2 | z4 B,,2 z2 | x8 | %26
[M:13/8] x13 |] %27

